X:1
T:Now He Uses Me
T:Now He Uses Me
T:Walter Stillman Martin
T:Civilla Durfee Holden Martin, 1909
T:Public Domain Courtesy of the Cyber Hymnal™
C:Walter Stillman Martin
Z:Public Domain
Z:Courtesy of the Cyber Hymnal™
%%score ( 1 2 ) ( 3 4 )
L:1/8
Q:1/4=110
M:4/4
K:F
V:1 treble 
V:2 treble 
V:3 bass 
V:4 bass 
V:1
 C2 | [CF]3 [CE] [CF]2 [EG]2 | [FA]2 [Fc]4 [CF]2 | [EG]3 [E^F] [EG]2 [EA]2 | [CF]6 [CF]2 | %5
w: 1.~How|oft I prayed for|pow- er, And|tar- ried by the|way; I|
w: 2.~I|did not get the|bless- ing Un-|til the Bless- er|came; Nor|
w: 3.~To-|day my rich- est|bless- ing Is|do- ing His sweet|word; My|
 [CF]3 [CE] [CF]2 [EG]2 | [FA]2 [Fc]4 [Fd]2 | [CF]2 [CF]2 [FA]3 [EG] | [CF]6 ||"^Refrain" C2 | %10
w: want- ed some great|bless- ing To|use each bu- sy|day.||
w: was I fit for|ser- vice Till|filled with love’s warm|flame.|But|
w: high- est joy each|mo- ment Is|to be used of|God.||
 [EA]2 [EG]2 [E^F]2 [EG]2 | [Ec]6 C2 | [CG]2 [CF]2 [CE]2 [CF]2 | [Fc]6 C2 | D2 [DF]2 [DB]2 [Fd]2 | %15
w: |||||
w: now He us- es|me, Praise|God, He us- es|me; The|bless- èd Ho- ly|
w: |||||
 [Fc] [FA]3 [FG]2 [DF]2 | [EG]2 [Ec]>[Ec] !fermata![Ec]2 C2 | [EA]2 [EG]2 [E^F]2 [EG]2 | [Ec]6 C2 | %19
w: ||||
w: Spir- it Us- es|me, ev- en me; But|now He us- es|me, Praise|
w: ||||
 [CG]2 [CF]2 [CE]2 [CF]2 | [Fc]6 [Fc]2 | [Fd]2 [Fd]2 [DF]2 [Fd]2 | [Fc] [FA]3 [FA]3 [EG] | [CF]6 |] %24
w: |||||
w: God, He us- es|me; The|bless- èd Ho- ly|Spir- it us- es|me.|
w: |||||
V:2
 C2 | x8 | x8 | x8 | x8 | x8 | x8 | x8 | x6 || C2 | x8 | x6 C2 | x8 | x6 C2 | D2 x6 | x8 | x6 C2 | %17
 x8 | x6 C2 | x8 | x8 | x8 | x8 | x6 |] %24
V:3
 [F,A,]2 | [F,A,]3 [F,G,] [F,A,]2 [C,C]2 | [F,C]2 [F,A,]4 [F,A,]2 | [C,B,]3 [C,A,] [C,B,]2 [C,C]2 | %4
w: ~|~ ~ ~ ~|~ ~ ~|~ ~ ~ ~|
 [F,A,]6 [F,A,]2 | [F,A,]3 [F,G,] [F,A,]2 [C,C]2 | [F,C]2 [F,A,]4 [B,,B,]2 | %7
w: ~ ~|~ ~ ~ ~|~ ~ ~|
 [C,A,]2 [C,A,]2 [C,C]3 [C,B,] | [F,A,]6 || C,2 | [C,B,]2 [C,B,]2 [C,A,]2 [C,B,]2 | %11
w: ~ ~ ~ ~|~|~|~ ~ ~ ~|
 [C,B,]2 [C,B,]2 [C,B,]2 [C,B,]2 | [F,B,]2 [F,A,]2 [F,G,]2 [F,A,]2 | %13
w: ev- en me, ~|~ ~ ~ ~|
 [F,A,]2 [F,A,]2 [F,A,]2 [F,A,]2 | [B,,F,]2 [B,,B,]2 [B,,B,]2 [B,,B,]2 | %15
w: ev- en me, ~|~ ~ ~ ~|
 [F,A,] [F,C]3 [D,=B,]2 [G,B,]2 | [C,C]2 [C,B,]>[C,B,] !fermata![C,B,]2 C,2 | %17
w: ~ ~ ~ ~|~ ~ ~ ~ ~|
 [C,B,]2 [C,B,]2 [C,A,]2 [C,B,]2 | [C,B,]2 [C,B,]2 [C,B,]2 [C,B,]2 | %19
w: ~ ~ ~ ~|ev- en me, ~|
 [F,B,]2 [F,B,]2 [F,G,]2 [F,A,]2 | [F,A,]2 [F,A,]2 [F,A,]2 [F,A,]2 | %21
w: ~ ~ ~ ~|~ * * *|
 [B,,B,]2 [B,,B,]2 [B,,B,]2 [B,,B,]2 | [F,A,] [F,C]3 [C,C]3 [C,B,] | [F,A,]6 |] %24
w: |||
V:4
 x2 | x8 | x8 | x8 | x8 | x8 | x8 | x8 | x6 || C,2 | x8 | x8 | x8 | x8 | x8 | x8 | x6 C,2 | x8 | %18
 x8 | x8 | x8 | x8 | x8 | x6 |] %24

